X:355
T:The Beauty Spot
R:Reel
S:Unknown piper (Tommy Keane)
D:Clare FM broadcast. From the Miltown Malbay pipe recital.
M:4/4
Z:Bernie Stocks
K:D
|: (3ABA GB A2dB | =cBcG EFGB | ABGB ADdB | =cBcE {G}EDD2 :| eddf edcd | edcd eg~g2 |
eddf ed=cA | GA=cd edd2 | eddf edcd | edcd eg~g2 | (3efg ed d=cAG | GA=cd egdc ||
